X:727
T:The Nameless
C:Skillern & Challoner, 1808
Z:2017 John Chambers <jc:trillian.mit.edu>
B:Skillern & Challoner "A Favourite Collection of Popular Country Dances", London 1808, No. 5 p.3 #1
F:https://archive.org/search.php?query=Country%20Dances
F:https://archive.org/details/SkillernChallonerCountryDances5
S:Colin Hume's website,  colinhume.com  - chords can also be printed below the stave.
Q:1/4=120
M:4/4
R:Reel
L:1/8
K:F
V:1
%%MIDI gchord b3b3
%%MIDI program 73     Flute
%%MIDI bassprog 69    English Horn
%%MIDI chordvol 50
%%MIDI chordprog 69   English Horn
%%MIDI bassvol 70
AB !segno! | "F"c2ag "Bb/F"gfdf | "F"c2ag "Bb/F"gfdf | "F"(cdcB) (ABcA) | "C/E"(cBAB) G2(AB) |
"F"c2ag "Bb/F"gfdf | "F"c2ag "Bb"gfdf | "F"c(dcB) "C7/E"A(BAG) | "F"FAcf !fine!F2 |]
|| EF | "C"(GABc) (cBAG) | "F"(ABcd) (dcBA) | "C/E"{LGA}B2AG "F"{LFG}A2GF | "G"EFDE "C"C2EF |
"C"(GABc) (cBAG) | "F"(Aa)gf (ef)cA | "C/E"B(Bg)B "F"A(Af)A | "C"(ed)cd (cB)AB !segno! |]
V:2 bass octave=-2
%%MIDI program 6      Harpsichord
z2 !segno! | FcAc FdBd | FcAc FdBd | FcAc FcAc | EcGc EcGc |
FcAc FdBd | FcAc FdBd | FcAc EcBc | FcAc F2 |]
|| z2 | C4 E2C2 | F4 A2F2 | E2c2 F2c2 | G2G,2 C2z2 |
C4 E2C2 | F4 A2F2 | E2c2 F2c2 | C4 "^Da Capo."z4 |]

